X: 2
T: Johnny Doherty's
R: reel
M: 4/4
L: 1/8
K: Dmaj
|: AG | FDAF GFED | FDAF G3A | FDAF GFEc | dBcA G3A |
FDAF GFED | FDAF G3A | FDAF GFEc | dBcA G3A :|
|: A3B cAGE | A3B cdec | A3B cAGE | dBcA G2 G2 |
A3B cAGE | A3B cd e2 | f3d e3c | dcAF G2 G2 :|


Tune 201	Setting 23116

